X:1
T:1. Prélude
T:1. Prélude
T:Premier Livre de Pièces de Clavecin
T:Jean-Philippe Rameau
C:Jean-Philippe Rameau
%%score { ( 1 3 ) | ( 2 4 ) }
L:1/8
Q:3/4=90
M:none
K:C
V:1 treble nm="Piano" snm="Pno."
V:3 treble 
V:2 bass 
V:4 bass 
V:1
 x16 (E8 A8 c8) x8 x2 (E8 ^G8 d8) x8 x2 E8 A8 e3[Q:1/4=100] dcBA=GFE F3 D2 | %1
 F{G} TF3 E [CE-]8 x2 A,8- [A,D-]8 [B,D]8- DE CB,/C/ [A,B,]=G,B,-E- [B,E=G]8 | %2
[Q:3/4=100] x8 x2 (B,8 ^D8 A8) x8 x2 (B,8 E8-[Q:1/4=100] B8-) [EB]2 cBAG^FE{E} T^D3 E^FGA^F z B x4 x2 | %3
[Q:3/4=100] (G8 E8 ^c8) x8 B (A8 ^F8 ^d8) x8 BA (G8 B8 e8) x8 (^F8 B8-[Q:1/4=100] =d8-)[Q:1/4=70] [EBd]8 | %4
 (edcA-) AB{B} c3 a3 b/a/b/ c'aPg^f b>a^g/^f/e/d/ x x/ e a2- a6{e} Td4 | z2 e4- c2- [Ace]2 || %6
[M:12/8][Q:1/4=120] aec fdB ecA dB^G | cAE B^GD CEA B,AG | ACD ECF- F3- FED | CA,C E A2- AGF G3- | %10
 GFE F3 E6- | EDC D6 CDC |[I:staff +1] [A,B,]=G,[I:staff -1]E ^FA,F G6- | GAG ^FGE ^DB,D E^CE | %14
 ^F^DF GAG F2 B, F2 B | G2 E G2 c A2 D A2 d | B2 E B2 e ^c2 ^F c2 ^f | ^d^cd Bcd e^fe Bfe | %18
 ^fgf Bgf gag Bag | aba Bba bag{g} T^f2 e | ee^f gag Aag fge | ^fde fgf Ggf efd | %22
 ecd e^fe ^Ffe de^c | dB=c ded Eed cdB | cAB cdc Ddc BcA | ^GEG A^FA BGB cdc | B3 e3 c3 e3 | %27
 B3 e3 c3 e3 | B3 e3 cde cde | fed cBA ^GAB E^FG | ABc{c} TB2 A AEC FDB, | %31
 ECA, DB,^G, CA,[I:staff +1]E,[I:staff -1] B,G,[I:staff +1]D, |[I:staff -1][K:bass] [C,E,A,]12 |] %33
V:2
 A,8 A,,8 x16 x8 A,A,,- [A,,A,]8 x16 x8 B,A,,- [A,,C]8 x16 x8 x4 x2 x | %1
 x4 x A,3 G,F,E,D,C,B,,A,, F,8- F,3 E,D,C,B,,A,,{A,,} T^G,,2 ^F,,E,,F,,G,,A,,B,, C,3 A,, E,8 x4 | %2
 E,E,,- [E,,^F,]8 x16 x8 ^F,E,,- [E,,=G,-]8 x16 G,^F,E,D,C,B,,A,,=G,, A,,8- [A,,A,]8 G,8 | %3
 x16 x8 ^F,8 x16 x8 x E,8- x2- x2 x16 x4 x2 B,,8 x16 x B,A,B,- x4{A,} T^G,3 A,/B,/ =C,4 | %4
 x4 D,2 A,2 G,2 ^F,8 ^G,4 A,4 E,8 x2 | [A,,,A,,]8- x2 ||[M:12/8] [A,,,A,,]12- | [A,,,A,,]12 | %8
 A,,6- A,,3 ^G,,3 | A,,6 E,,6 | F,,6 C,,6 | ^F,3- F,B,A, ^G,E,G, A,3- | x12 | A,,6 A,3 G,3 | %14
 ^F,3 E,3 B,,^C,^D, B,,C,D, | E,^F,G, E,F,G, F,E,F, D,E,F, | G,^F,G, E,F,G, A,G,A, F,G,A, | %17
 B,3 A,3 G,3 z z E | ^F,3 z z ^D E,3 z z E | ^D,3 z z ^F, G,,2 A,, B,,2 B,,, | E,,3 E3 ^C3 A,3 | %21
 D,3 D3 B,3 G,3 | C,3 C3 A,3 ^F,3 | B,,3 B,3 ^G,3 E,3 | A,,3 A,3 =F,3 D,3 | E,3 C,3 B,,3 A,,3 | %26
 E,^F,^G, E,F,G, A,B,C A,B,C | ^G,A,B, E,^F,G, A,B,C A,B,C | ^G,A,B, E,^F,G, A,3 A,,3 | %29
 z6 [E,B,]6 | A,3 z2 z z6 | A,,3 E,,3 A,,,3 E,,3 | [A,,,C,,E,,A,,]12 |] %33
V:3
 x115 | x15 E2 FE- x2 x2 x4 x8 x4 [E,B,]2 PA,2- x12 | x32 x32 x4 C2 x22 | x131 | %4
 x4 =f2 e3{e} ^d4 x9/2{^f} =d2 x2 Pc3 c x/ B8 ^g2 | x2 a8- ||[M:12/8] x12 | x12 | z6 DCD B,3 | %9
 z2 z EAC B,3- B,CB, | A,3- A,A,B, z DC B,A,G, | x12 | x6 B,6 | C3 z2 z z6 | z2 z E3 z6 | x12 | %16
 x12 | x12 | x12 | x12 | x12 | x12 | x12 | x12 | x12 | x9 A3 | x12 | x12 | x12 | x12 | x12 | x12 | %32
[K:bass] x12 |] %33
V:4
 x115 | x55 | x92 | x131 | x27/2 A,4 x/ E,4 x10 E,,4 | x10 ||[M:12/8] x12 | x12 | x12 | x12 | x12 | %11
 D,,6 E,,6 | E,,6 z E,D, C,B,,E, | x12 | x12 | x12 | x12 | x12 | x12 | x12 | x12 | x12 | x12 | %23
 x12 | x12 | x12 | x12 | x12 | x12 | D,6- D,6 | C,2 D, E,2 E,, A,,6 | x12 | x12 |] %33

